X: 15
T: Sí Bheag Sí Mhór
C: Turlough O'Carolan
Z: Bodhránboy854
S: https://thesession.org/tunes/449#setting51448
R: waltz
M: 3/4
L: 1/8
K: Dmaj
|:de|f2fed2|e2d2B2|A4F2|A4A2|
BA Bcd2|e4de|f4e2|d4f2|
B4e2|A4dA|F4EA|D4f2|
B4e2|A4dc|d3dd2|d4[:|
|:de|f2fed2|e2f2a2|b4a2|f4ed|
e4a2|f4e2|d4B2|A4BA|
F4EA|D4f2|B4e2|A3fa2|
ba gf ed|e4dc|d3dd2|d4:||

